X:5682
T:Gan Ainm
R:Reel
S:
H:
N:
D:Galway Sessions
Z:Adrian Scahill
M:4/4
L:1/8
K:G
GEDE G3A|Bdgd BGG2|AGEG ABcA|(3Bcd gd egdB|\
GEDE G3A|Bdgd BGG2|(3Bcd ed Bage|dBAc BGG2:||\
gede g3a|bgaf ged2|ageg agab|c'abg agef|\
gede g3a|bgaf gfed|(3Bcd ed Bdge|dBAc BGG2:||


